X: 77
T: Sibao langong
L: 1/8
M: 2/4
K: G
cc2A [I:setbarnb 1]| 
A G E D | 
d3e | 
c3d | 
ed2d | 
d2c A | 
G A E D | 
G4 | 
GG2A | 
d2d e | 
cc2d | 
A G E D | 
cc2A | 
G A G E | 
D3E | 
D2z2 |]

@@@ Tune index: 8951
